packages/ui-icons/svg/Solid/bullet-list-square.svg

<svg viewBox="0 0 1920 1920" version="1.1" xmlns="http://www.w3.org/2000/svg">
    <path d="M0,612.001 L425,612.001 L425,187 L0,187 L0,612.001 Z M640,507.001 L1920,507.001 L1920,282.001 L640,282.001 L640,507.001 Z M0,1172.001 L425,1172.001 L425,747.001 L0,747.001 L0,1172.001 Z M640,1072.001 L1920,1072.001 L1920,847.001 L640,847.001 L640,1072.001 Z M0,1732.001 L425,1732.001 L425,1307.001 L0,1307.001 L0,1732.001 Z M640,1635.001 L1920,1635.001 L1920,1410.001 L640,1410.001 L640,1635.001 Z" stroke="none" stroke-width="1" fill-rule="evenodd"/>
</svg>

<svg viewBox="0 0 1920 1920" xmlns="http://www.w3.org/2000/svg">
    <path d="M0 612.001h425V187H0v425.001Zm640-105h1280v-225H640v225Zm-640 665h425v-425H0v425Zm640-100h1280v-225H640v225Zm-640 660h425v-425H0v425Zm640-97h1280v-225H640v225Z" fill-rule="evenodd"/>
</svg>
